X:10
T:What Child is This?
C: William C. Dix / traditional 16th century English melody (Greensleeves)
M:6/8
L:1/8
Q:1/4=88
%%staves [(1 2) (3 4)]
K:G
V:1 clef=treble
E | G2 A B>c B | A2 F D>E F | G2 F F>^D E | F3 B,2 E |
w: What Child is this,* who, laid to rest,* On Ma-ry's lap* is sleep-ing? Whom
w: Why lies he in* such mean es-tate* Where ox and ass* are feed-ing? Good
w: So bring Him in-*cense, gold and myrrh,* Come, peas-ant king,* to own Him; The
V:2 clef=treble
B, | E2 D D2 G | F2 D D2 C | B,2 B, A,2 E | ^D3 B,2 B, |
V:3 clef=bass
g | b2 a g2 b | d'2 a f2 a | g2 g e2 e | f3 b2 g |
V:4 clef=bass
e | e2 f g2 g | d2 d d2 ^d | e2 e c2 c | B3 b2 e |
V:1
G2 A B>c B | A2 F D>E F | G>F E ^D2 ^D | E3 E3 |
w: an-gels greet* with an-thems sweet,* While shep-* herds watch are keep-ing?
w: Chris-tian, fear;* for sin-ners here* The si-* lent Word is plead-ing.
w: King of kings* sal-va-tion brings,* Let lov-* ing hearts en-throne Him.
V:2
E2 D D2 G | F2 D D2 C | B,2 C  B,2 B, | B,3 B,3 |
V:3
b2 a g2 b | d'2 a f2 a | g2 a f2 f | g3 g3 | 
V:4
e2 f g2 g | d2 d d2 ^d | e2 A B2 B | e3 e3 |
V:1
d3 d>^c B | A2 F D>E F | G2 E E>^D E | F2 ^D B,3 |
w:
w: This, this* is Christ the King,* Whom shep-herds guard* and an-gels sing
w:
V:2
F3 B>A G | F2 D D2 C | B,2 B, A,2 E | ^D2 B, B,3 |
V:3
b3 d'2 d' | d'2 a f2 a | g2 g a2 e | f2 f b3 |
V:4
b3 g2 g | d2 d d2 ^d | e2 e c2 c | B2 B B3 |
V:1
d3 d>^c B | A2 F D>E F | G>F E ^D2 ^D | E3 E2 |]
w:
w: Hast, haste* to bring Him laud,* The Babe,* the Son of Ma-ry.
w:
V:2
F3 B>A G | F2 D D2 C | B,2 C B,2 B, | B,3 B,2 |]
V:3
b3 d'2 d' | d'2 a f2 a | g2 a f2 f | a3 g2 |]
V:4
b3 g2 g | d2 d d2 ^d | e2 A B2 B | e3 e2 |]

